X: 55
T:Tonra's Jig
M:6/8
L:1/8
C:Brendan Tonra
R:Double Jig
K:D
F2F AFE|FDB, A,B,D|FEF GFG|ABF AFD|!
FFF AFE|EDB, A,B,D|FEF GFG|BAF D3:|!
|:f2d dcd|edB Ade|f2d dcd|ABF Ade|!
f2d dcd|edB Ade|f2f gec|dAF D3:|]!
